image/icon-instagram.svg

<svg width="30" height="30" viewBox="0 0 30 30" fill="none" xmlns="http://www.w3.org/2000/svg">
<path d="M21.2711 0H8.7292C4.0468 0 0.250977 3.79582 0.250977 8.47822V21.5218C0.250977 26.2042 4.0468 30 8.7292 30H21.271C25.9535 30 29.7492 26.2042 29.7492 21.5218V8.47822C29.7493 3.79582 25.9535 0 21.2711 0ZM3.261 8.47822C3.261 5.46293 5.71391 3.01002 8.7292 3.01002H21.271C24.2863 3.01002 26.7392 5.46293 26.7392 8.47822V21.5218C26.7392 24.5371 24.2863 26.99 21.271 26.99H8.7292C5.71391 26.99 3.261 24.5371 3.261 21.5218V8.47822Z" fill="black"/>
<path d="M15.0001 22.7254C19.26 22.7254 22.7258 19.2597 22.7258 14.9998C22.7258 10.7399 19.26 7.27393 15.0001 7.27393C10.7402 7.27393 7.27441 10.7399 7.27441 14.9998C7.27441 19.2597 10.7401 22.7254 15.0001 22.7254ZM15.0001 9.68195C17.9323 9.68195 20.3177 12.0675 20.3177 14.9998C20.3177 17.9321 17.9323 20.3177 15.0001 20.3177C12.0679 20.3177 9.68244 17.9321 9.68244 14.9998C9.68244 12.0675 12.0679 9.68195 15.0001 9.68195Z" fill="black"/>
<path d="M22.9515 8.77971C23.9074 8.77971 24.6823 8.00475 24.6823 7.04879C24.6823 6.09283 23.9074 5.31787 22.9515 5.31787C21.9956 5.31787 21.2207 6.09283 21.2207 7.04879C21.2207 8.00475 21.9956 8.77971 22.9515 8.77971Z" fill="black"/>
</svg>

<svg xmlns="http://www.w3.org/2000/svg" width="30" height="30" fill="none"><path fill="#000" d="M21.271 0H8.73A8.48 8.48 0 0 0 .251 8.478v13.044A8.48 8.48 0 0 0 8.729 30h12.542a8.48 8.48 0 0 0 8.478-8.478V8.478A8.48 8.48 0 0 0 21.271 0M3.261 8.478A5.474 5.474 0 0 1 8.729 3.01h12.542a5.474 5.474 0 0 1 5.468 5.468v13.044a5.474 5.474 0 0 1-5.468 5.468H8.729a5.474 5.474 0 0 1-5.468-5.468z"/><path fill="#000" d="M15 22.725c4.26 0 7.726-3.465 7.726-7.725S19.26 7.274 15 7.274 7.274 10.74 7.274 15 10.74 22.725 15 22.725m0-13.043A5.324 5.324 0 0 1 20.318 15 5.324 5.324 0 0 1 15 20.318 5.324 5.324 0 0 1 9.682 15 5.324 5.324 0 0 1 15 9.682M22.952 8.78a1.73 1.73 0 1 0 0-3.462 1.73 1.73 0 0 0 0 3.462"/></svg>
